docs/concepts/automation/img/default_workflow_actors.svg

<svg xmlns="http://www.w3.org/2000/svg" xmlns:xl="http://www.w3.org/1999/xlink" width="602pt" height="382pt" version="1.1" viewBox="223 181 602 382"><metadata>Produced by OmniGraffle 7.2.2</metadata><defs><font-face x-height="517" ascent="975.006" cap-height="714" descent="-216.995" font-family="Helvetica Neue" font-size="12" font-weight="bold" panose-1="2 0 8 3 0 0 0 9 0 4" slope="0" underline-position="-100" underline-thickness="50" units-per-em="1000"><font-face-src><font-face-name name="HelveticaNeue-Bold"/></font-face-src></font-face><marker id="FilledArrow_Marker" color="#a5a5a5" markerHeight="8" markerUnits="strokeWidth" markerWidth="10" orient="auto" overflow="visible" viewBox="-1 -4 10 8"><g><path fill="currentColor" stroke="currentColor" stroke-width="1" d="M 8 0 L 0 -3 L 0 3 Z"/></g></marker></defs><g fill="none" fill-opacity="1" stroke="none" stroke-dasharray="none" stroke-opacity="1"><title>Canvas 1</title><g><title>Layer 1</title><rect width="401.5" height="128" x="344" y="292.5" fill="#c0ffc0"/><rect width="401.5" height="128" x="344" y="292.5" stroke="#a5a5a5" stroke-linecap="round" stroke-linejoin="round" stroke-width="3"/><path fill="#c0ffff" d="M 363 321.5 L 512.73806 321.5 C 517.7086 321.5 521.73806 325.52944 521.73806 330.5 L 521.73806 341 C 521.73806 345.97056 517.7086 350 512.73806 350 L 363 350 C 358.02944 350 354 345.97056 354 341 L 354 330.5 C 354 325.52944 358.02944 321.5 363 321.5 Z"/><path stroke="#a5a5a5" stroke-linecap="round" stroke-linejoin="round" stroke-width="3" d="M 363 321.5 L 512.73806 321.5 C 517.7086 321.5 521.73806 325.52944 521.73806 330.5 L 521.73806 341 C 521.73806 345.97056 517.7086 350 512.73806 350 L 363 350 C 358.02944 350 354 345.97056 354 341 L 354 330.5 C 354 325.52944 358.02944 321.5 363 321.5 Z"/><text fill="#000" transform="translate(359 328.07596)"><tspan x="59.663" y="12" font-family="Helvetica Neue" font-size="12" font-weight="bold" textLength="38.412">collect</tspan></text><path fill="#dadada" d="M 577.5 382.5 L 727.23806 382.5 C 732.2086 382.5 736.23806 386.52944 736.23806 391.5 L 736.23806 402 C 736.23806 406.97056 732.2086 411 727.23806 411 L 577.5 411 C 572.52944 411 568.5 406.97056 568.5 402 L 568.5 391.5 C 568.5 386.52944 572.52944 382.5 577.5 382.5 Z"/><path stroke="#a5a5a5" stroke-linecap="round" stroke-linejoin="round" stroke-width="3" d="M 577.5 382.5 L 727.23806 382.5 C 732.2086 382.5 736.23806 386.52944 736.23806 391.5 L 736.23806 402 C 736.23806 406.97056 732.2086 411 727.23806 411 L 577.5 411 C 572.52944 411 568.5 406.97056 568.5 402 L 568.5 391.5 C 568.5 386.52944 572.52944 382.5 577.5 382.5 Z"/><text fill="#000" transform="translate(573.5 389.07596)"><tspan x="56.207" y="12" font-family="Helvetica Neue" font-size="12" font-weight="bold" textLength="45.324">cleanup</tspan></text><path fill="#dadada" d="M 363 382.5 L 512.73806 382.5 C 517.7086 382.5 521.73806 386.52944 521.73806 391.5 L 521.73806 402 C 521.73806 406.97056 517.7086 411 512.73806 411 L 363 411 C 358.02944 411 354 406.97056 354 402 L 354 391.5 C 354 386.52944 358.02944 382.5 363 382.5 Z"/><path stroke="#a5a5a5" stroke-linecap="round" stroke-linejoin="round" stroke-width="3" d="M 363 382.5 L 512.73806 382.5 C 517.7086 382.5 521.73806 386.52944 521.73806 391.5 L 521.73806 402 C 521.73806 406.97056 517.7086 411 512.73806 411 L 363 411 C 358.02944 411 354 406.97056 354 402 L 354 391.5 C 354 386.52944 358.02944 382.5 363 382.5 Z"/><text fill="#000" transform="translate(359 389.07596)"><tspan x="40.991" y="12" font-family="Helvetica Neue" font-size="12" font-weight="bold" textLength="75.756">cleanup_plan</tspan></text><path fill="#c0ffff" d="M 577.5 321.5 L 727.23806 321.5 C 732.2086 321.5 736.23806 325.52944 736.23806 330.5 L 736.23806 341 C 736.23806 345.97056 732.2086 350 727.23806 350 L 577.5 350 C 572.52944 350 568.5 345.97056 568.5 341 L 568.5 330.5 C 568.5 325.52944 572.52944 321.5 577.5 321.5 Z"/><path stroke="#a5a5a5" stroke-linecap="round" stroke-linejoin="round" stroke-width="3" d="M 577.5 321.5 L 727.23806 321.5 C 732.2086 321.5 736.23806 325.52944 736.23806 330.5 L 736.23806 341 C 736.23806 345.97056 732.2086 350 727.23806 350 L 577.5 350 C 572.52944 350 568.5 345.97056 568.5 341 L 568.5 330.5 C 568.5 325.52944 572.52944 321.5 577.5 321.5 Z"/><text fill="#000" transform="translate(573.5 328.07596)"><tspan x="28.883" y="12" font-family="Helvetica Neue" font-size="12" font-weight="bold" textLength="99.972">generate_metrics</tspan></text><line x1="437.869" x2="437.869" y1="350.75" y2="371.85" stroke="#a5a5a5" stroke-linecap="round" stroke-linejoin="round" stroke-width="1" marker-end="url(#FilledArrow_Marker)"/><line x1="522.488" x2="557.85" y1="396.75" y2="396.75" stroke="#a5a5a5" stroke-linecap="round" stroke-linejoin="round" stroke-width="1" marker-end="url(#FilledArrow_Marker)"/><line x1="652.369" x2="652.369" y1="381.75" y2="360.65" stroke="#a5a5a5" stroke-linecap="round" stroke-linejoin="round" stroke-width="1" marker-end="url(#FilledArrow_Marker)"/><text fill="#000" transform="translate(524.75 297.82596)"><tspan x=".224" y="12" fill="#000" font-family="Helvetica Neue" font-size="12" font-weight="bold" textLength="39.552">resotocore</tspan></text><rect width="82.5" height="57" x="224.5" y="504.5" fill="#c0ffc0"/><rect width="82.5" height="57" x="224.5" y="504.5" stroke="#a5a5a5" stroke-linecap="round" stroke-linejoin="round" stroke-width="3"/><text fill="#000" transform="translate(229.5 525.32596)"><tspan x="9.256" y="12" fill="#000" font-family="Helvetica Neue" font-size="12" font-weight="bold" textLength="53.988">resotoworker</tspan></text><rect width="82.5" height="57" x="740.5" y="183" fill="#c0ffc0"/><rect width="82.5" height="57" x="740.5" y="183" stroke="#a5a5a5" stroke-linecap="round" stroke-linejoin="round" stroke-width="3"/><text fill="#000" transform="translate(745.5 203.82596)"><tspan x="7.822" y="12" fill="#000" font-family="Helvetica Neue" font-size="12" font-weight="bold" textLength="56.856">resotometrics</tspan></text><line x1="751.292" x2="667.989" y1="240.75" y2="320.75" stroke="#a5a5a5" stroke-dasharray="1 4" stroke-linecap="round" stroke-linejoin="round" stroke-width="1"/><line x1="278.837" x2="354" y1="503.75" y2="335.75" stroke="#a5a5a5" stroke-dasharray="1 4" stroke-linecap="round" stroke-linejoin="round" stroke-width="1"/><line x1="284.695" x2="353.25" y1="503.75" y2="397.908" stroke="#a5a5a5" stroke-dasharray="1 4" stroke-linecap="round" stroke-linejoin="round" stroke-width="1"/><line x1="307.75" x2="609.806" y1="518.199" y2="411.75" stroke="#a5a5a5" stroke-dasharray="1 4" stroke-linecap="round" stroke-linejoin="round" stroke-width="1"/></g></g></svg>

<svg xmlns="http://www.w3.org/2000/svg" width="602pt" height="382pt" viewBox="223 181 602 382"><defs><marker id="a" color="#a5a5a5" markerHeight="8" markerUnits="strokeWidth" markerWidth="10" orient="auto" overflow="visible" viewBox="-1 -4 10 8"><path fill="currentColor" stroke="currentColor" d="M8 0 0-3v6Z"/></marker></defs><g fill="none"><path fill="#c0ffc0" d="M344 292.5h401.5v128H344z"/><path stroke="#a5a5a5" stroke-linecap="round" stroke-linejoin="round" stroke-width="3" d="M344 292.5h401.5v128H344z"/><path fill="#c0ffff" d="M363 321.5h149.738a9 9 0 0 1 9 9V341a9 9 0 0 1-9 9H363a9 9 0 0 1-9-9v-10.5a9 9 0 0 1 9-9Z"/><path stroke="#a5a5a5" stroke-linecap="round" stroke-linejoin="round" stroke-width="3" d="M363 321.5h149.738a9 9 0 0 1 9 9V341a9 9 0 0 1-9 9H363a9 9 0 0 1-9-9v-10.5a9 9 0 0 1 9-9Z"/><text fill="#000" transform="translate(359 328.076)"><tspan x="59.663" y="12" font-family="Helvetica Neue" font-size="12" font-weight="bold" textLength="38.412">collect</tspan></text><path fill="#dadada" d="M577.5 382.5h149.738a9 9 0 0 1 9 9V402a9 9 0 0 1-9 9H577.5a9 9 0 0 1-9-9v-10.5a9 9 0 0 1 9-9Z"/><path stroke="#a5a5a5" stroke-linecap="round" stroke-linejoin="round" stroke-width="3" d="M577.5 382.5h149.738a9 9 0 0 1 9 9V402a9 9 0 0 1-9 9H577.5a9 9 0 0 1-9-9v-10.5a9 9 0 0 1 9-9Z"/><text fill="#000" transform="translate(573.5 389.076)"><tspan x="56.207" y="12" font-family="Helvetica Neue" font-size="12" font-weight="bold" textLength="45.324">cleanup</tspan></text><path fill="#dadada" d="M363 382.5h149.738a9 9 0 0 1 9 9V402a9 9 0 0 1-9 9H363a9 9 0 0 1-9-9v-10.5a9 9 0 0 1 9-9Z"/><path stroke="#a5a5a5" stroke-linecap="round" stroke-linejoin="round" stroke-width="3" d="M363 382.5h149.738a9 9 0 0 1 9 9V402a9 9 0 0 1-9 9H363a9 9 0 0 1-9-9v-10.5a9 9 0 0 1 9-9Z"/><text fill="#000" transform="translate(359 389.076)"><tspan x="40.991" y="12" font-family="Helvetica Neue" font-size="12" font-weight="bold" textLength="75.756">cleanup_plan</tspan></text><path fill="#c0ffff" d="M577.5 321.5h149.738a9 9 0 0 1 9 9V341a9 9 0 0 1-9 9H577.5a9 9 0 0 1-9-9v-10.5a9 9 0 0 1 9-9Z"/><path stroke="#a5a5a5" stroke-linecap="round" stroke-linejoin="round" stroke-width="3" d="M577.5 321.5h149.738a9 9 0 0 1 9 9V341a9 9 0 0 1-9 9H577.5a9 9 0 0 1-9-9v-10.5a9 9 0 0 1 9-9Z"/><text fill="#000" transform="translate(573.5 328.076)"><tspan x="28.883" y="12" font-family="Helvetica Neue" font-size="12" font-weight="bold" textLength="99.972">generate_metrics</tspan></text><path stroke="#a5a5a5" stroke-linecap="round" stroke-linejoin="round" marker-end="url(#a)" d="M437.869 350.75v21.1"/><path stroke="#a5a5a5" stroke-linecap="round" stroke-linejoin="round" marker-end="url(#a)" d="M522.488 396.75h35.362"/><path stroke="#a5a5a5" stroke-linecap="round" stroke-linejoin="round" marker-end="url(#a)" d="M652.369 381.75v-21.1"/><text fill="#000" transform="translate(524.75 297.826)"><tspan x=".224" y="12" font-family="Helvetica Neue" font-size="12" font-weight="bold" textLength="39.552">resotocore</tspan></text><path fill="#c0ffc0" d="M224.5 504.5H307v57h-82.5z"/><path stroke="#a5a5a5" stroke-linecap="round" stroke-linejoin="round" stroke-width="3" d="M224.5 504.5H307v57h-82.5z"/><text fill="#000" transform="translate(229.5 525.326)"><tspan x="9.256" y="12" font-family="Helvetica Neue" font-size="12" font-weight="bold" textLength="53.988">resotoworker</tspan></text><path fill="#c0ffc0" d="M740.5 183H823v57h-82.5z"/><path stroke="#a5a5a5" stroke-linecap="round" stroke-linejoin="round" stroke-width="3" d="M740.5 183H823v57h-82.5z"/><text fill="#000" transform="translate(745.5 203.826)"><tspan x="7.822" y="12" font-family="Helvetica Neue" font-size="12" font-weight="bold" textLength="56.856">resotometrics</tspan></text><path stroke="#a5a5a5" stroke-dasharray="1 4" stroke-linecap="round" stroke-linejoin="round" d="m751.292 240.75-83.303 80m-389.152 183 75.163-168m-69.305 168 68.555-105.842m-45.5 120.291L609.806 411.75"/></g></svg>
